X:1
T:Ashford, 10.10.10.10 D
T:Ashford, 10.10.10.10 D
T:Charles Hutchinson Gabriel, 1910
T:Public Domain Courtesy of the Cyber Hymnal™
C:Charles Hutchinson Gabriel, 1910
Z:Public Domain
Z:Courtesy of the Cyber Hymnal™
%%score ( 1 2 ) ( 3 4 )
L:1/8
Q:1/4=95
M:4/4
K:G
V:1 treble 
V:2 treble 
V:3 bass 
V:4 bass 
V:1
 [B,D]2 | [DB][DB] [DB]3 [DB][Ec][DB] | [DB][B,^G] [CA]4 [CD]2 | [CA][CA] [CA]3 [CA][DB][CA] | %4
 [CA][B,G] [B,D]4 [B,D]2 | [DB][DB] [DB]3 [DB][Dc][=Fd] | [Ed][Ec] [CE]3 [CE][DF][EG] | %7
 [DB][DB] [DB]3 [DG][DF][DA] | [DG]6 [Gd]2 | [Fd][Ec] [CE]3 [CF][DB][CA] | %10
 [B,A][B,G] [B,D]4 [Gd]2 | [Fd][FA] [FA]3 A[GB][GA] | [GB][G^c] [Fd]4 [B,D]2 | %13
 [DB][DB] [DB]3 [DB][Dc][=Fd] | [Ed][Ec] [CE]3 [CE][DF][EG] | [DB][DB] [DB]3 [DG][DF][DA] | %16
 [DG]6 |] %17
V:2
 x2 | x8 | x8 | x8 | x8 | x8 | x8 | x8 | x8 | x8 | x8 | x5 A x2 | x8 | x8 | x8 | x8 | x6 |] %17
V:3
 [G,,G,]2 | [G,,G,][G,,G,] [G,,G,]3 [G,,G,][G,,G,][G,,G,] | [D,G,][D,^E,] [D,F,]4 [D,F,]2 | %3
 [D,F,][D,F,] [D,F,]3 [D,F,][D,F,][D,F,] | [G,,G,][G,,G,] [G,,G,]4 [G,,G,]2 | %5
 G,G, G,3 G,[G,A,][B,,G,] | [C,G,][C,G,] [C,G,]3 [C,G,][C,G,][C,G,] | %7
 [D,G,][D,G,] [D,G,]3 [D,B,][D,A,][D,C] | [G,,G,B,]6 [G,B,]2 | %9
 [D,A,][D,A,] [D,A,]3 [D,A,][D,F,][D,F,] | [G,,G,][G,,G,] [G,,G,]4 [G,B,]2 | %11
 [D,A,][D,D] [D,D]3 [F,D][E,^C][E,C] | [A,,A,^C][A,,A,] [D,A,]4 [G,,G,]2 | %13
 G,G, G,3 G,[G,A,][B,,G,] | [C,G,][C,G,] [C,G,]3 [C,G,][C,G,][C,G,] | %15
 [D,G,][D,G,] [D,G,]3 [D,B,][D,A,][D,C] | [G,,G,B,]6 |] %17
V:4
 x2 | x8 | x8 | x8 | x8 | G,G, G,3 G, x2 | x8 | x8 | x8 | x8 | x8 | x8 | x8 | G,G, G,3 G, x2 | x8 | %15
 x8 | x6 |] %17

